packages/foundations/assets/icons/functional/images/environment/moon_24_filled.svg

<svg xmlns="http://www.w3.org/2000/svg" width="20" height="20" fill="none"><path fill="#1A1C1F" fill-rule="evenodd" d="M9.66 2.036c-2.203.149-4.194 1.166-5.642 2.881-.515.609-1.084 1.606-1.368 2.396-.488 1.357-.598 2.986-.295 4.37a8 8 0 0 0 4.295 5.503 7.7 7.7 0 0 0 3.517.818c.954 0 1.641-.11 2.559-.411 1.674-.549 3.121-1.665 4.151-3.203.218-.325.838-1.535.922-1.798.072-.227-.081-.515-.315-.592-.071-.023-.297-.025-.694-.005-.323.016-.776.017-1.007.002-2.71-.175-4.944-2.144-5.49-4.836-.067-.332-.076-.473-.075-1.161.001-.722.008-.816.091-1.203.115-.539.235-.879.561-1.583.144-.313.272-.615.283-.671.029-.146-.087-.391-.226-.475-.095-.059-.162-.067-.494-.063-.21.003-.559.017-.773.031"/></svg>

<svg width="20" height="20" viewBox="0 0 20 20" fill="none" xmlns="http://www.w3.org/2000/svg"><path d="M9.660 2.036 C 7.457 2.185,5.466 3.202,4.018 4.917 C 3.503 5.526,2.934 6.523,2.650 7.313 C 2.162 8.670,2.052 10.299,2.355 11.683 C 2.883 14.095,4.454 16.108,6.650 17.186 C 7.784 17.743,8.904 18.003,10.167 18.004 C 11.121 18.004,11.808 17.894,12.726 17.593 C 14.400 17.044,15.847 15.928,16.877 14.390 C 17.095 14.065,17.715 12.855,17.799 12.592 C 17.871 12.365,17.718 12.077,17.484 12.000 C 17.413 11.977,17.187 11.975,16.790 11.995 C 16.467 12.011,16.014 12.012,15.783 11.997 C 13.073 11.822,10.839 9.853,10.293 7.161 C 10.226 6.829,10.217 6.688,10.218 6.000 C 10.219 5.278,10.226 5.184,10.309 4.797 C 10.424 4.258,10.544 3.918,10.870 3.214 C 11.014 2.901,11.142 2.599,11.153 2.543 C 11.182 2.397,11.066 2.152,10.927 2.068 C 10.832 2.009,10.765 2.001,10.433 2.005 C 10.223 2.008,9.874 2.022,9.660 2.036 " fill="#1A1C1F" stroke="none" fill-rule="evenodd"></path></svg>
